!!!!SEGMENT: pl-kk--kk-i-1--004-001_jachet-de-mantua--missa-quam-pulchra-es-kyrie.krn
!!!cenid: 15xx:668
!!!COM: Jachet de Mantua
!!!COM-rismid: pe30003816
!!!CDT: 1483-1559/10/02
!!!CNT: French
!!!OPR: [Missa] Quam pulchra es
!!!OTL: Kyrie
!!!OMV: 001
!!!PDT:
!!!AGN:
!!!SMS-siglum: PL-Kk
!!!SMS-shelfmark: Kk.I.1
!!!SMS-shelfwork: 004-001 M
!!!SMS-variant:
!!!SMS-altvar:
!!!NIFC-rismid: 300257958
!!!URL-scan: http://repozytorium.nifc.pl/skany/pl-kk-nut--i-1
!!!ONB-nifc: UWAGA: Cantus (s. 21v-30v, skan 0024-0033), Altus (s. 21r-31r, skan 0213-0223), Tenor (s. 22r-31r, skan 0410-0419), Bassus (s. 20v-30r, skan 0582-0591). Części Mszy: 1. Kyrie, 2. Et in terra, 3. Patrem, 4. Sanctus, 5. Agnus Dei
!!!AIN: 1 alto 1 bass 1 soprn 1 tenor
!!!key: F
**kern	**text	**kern	**text	**kern	**text	**kern	**text
*part4	*part4	*part3	*part3	*part2	*part2	*part1	*part1
*staff4	*staff4	*staff3	*staff3	*staff2	*staff2	*staff1	*staff1
*I"BASSVS	*	*I"TENOR	*	*I"ALTVS	*	*I"CANTVS	*
*I'B	*	*I'T	*	*I'A	*	*I'C	*
*Ibass	*	*Itenor	*	*Ialto	*	*Isoprn	*
*ICvox	*	*ICvox	*	*ICvox	*	*ICvox	*
*clefF4	*	*clefC4	*	*clefC4	*	*clefC4	*
*k[b-]	*	*k[b-]	*	*k[b-]	*	*k[b-]	*
*F:	*	*F:	*	*F:	*	*F:	*
*M2/1	*	*M2/1	*	*M2/1	*	*M2/1	*
*met(C|)	*	*met(C|)	*	*met(C|)	*	*met(C|)	*
=1-	=1-	=1-	=1-	=1-	=1-	=1-	=1-
!LO:TX:a:t=Quam pulchra es.:color=red	!	!LO:TX:a:t=Quam pulchra es.:color=red	!	!LO:TX:a:t=Quam pulchra es.:color=red	!	!LO:TX:a:t=Quam pulchra es.:color=red	!
00r	.	00r	.	00r	.	0F	KY-
=2-	=2-	=2-	=2-	=2-	=2-	=2-	=2-
!	!	!	!	!	!	!LO:TX:t=P:problem=kreska pseudotaktowa	!
.	.	.	.	.	.	1F	-ri-
.	.	.	.	.	.	1B-	-e
=3-	=3-	=3-	=3-	=3-	=3-	=3-	=3-
!	!	!LO:TX:t=P:problem=kreska pseudotaktowa	!	!LO:TX:t=P:problem=kreska pseudotaktowa	!	!LO:TX:t=P:problem=kreska pseudotaktowa	!
00r	.	00r	.	0F	KŸ-	1A	.
.	.	.	.	.	.	2r	.
*	*	*	*	*	*	*	*ij
.	.	.	.	.	.	2F/	KY-
=4-	=4-	=4-	=4-	=4-	=4-	=4-	=4-
*	*	*	*	*lig	*	*	*
.	.	.	.	1F	-ri-	2c\	.
!	!	!	!	!	!	!LO:TX:t=P:problem=kreska pseudotaktowa	!
.	.	.	.	.	.	2c\	-ri-
.	.	.	.	1B-	.	1d	-e
*	*	*	*	*Xlig	*	*	*
=5-	=5-	=5-	=5-	=5-	=5-	=5-	=5-
!LO:TX:t=P:problem=kreska pseudotaktowa	!	!	!	!LO:TX:t=P:problem=kreska pseudotaktowa	!	!	!
00r	.	0F	KY-	1A	-e	1c	.
.	.	.	.	2r	.	2F/	.
*	*	*	*	*	*ij	*	*
.	.	.	.	2F/	KŸ-	1f\	.
=6-	=6-	=6-	=6-	=6-	=6-	=6-	=6-
*	*	*lig	*	*	*	*	*
.	.	1F	-ri-	2c\	.	.	.
!	!	!	!	!LO:TX:t=P:problem=kreska pseudotaktowa	!	!LO:TX:t=P:problem=kreska pseudotaktowa	!
.	.	.	.	2c\	-ri-	2e\	.
.	.	1B-	.	1d	-e	2d\	.
.	.	.	.	.	.	1f\	.
*	*	*Xlig	*	*	*	*	*
=7-	=7-	=7-	=7-	=7-	=7-	=7-	=7-
!	!	!LO:TX:t=P:problem=kreska pseudotaktowa	!	!	!	!	!
0FF	KY-	1A	-e	2.c\	.	.	.
.	.	.	.	.	.	4e\	.
*	*	*	*	*	*	*custos:c	*
!	!	!	!	!LO:TX:t=P:problem=kreska pseudotaktowa	!	!LO:TX:t=P:problem=kreska pseudotaktowa	!
.	.	.	.	4B-/	.	4d\	.
!	!	!	!	!	!	!LO:LB:g=original	!
.	.	2r	.	4A/	.	1c	.
.	.	.	.	4G/	.	.	.
*	*	*	*ij	*	*	*	*
.	.	2F/	KY-	2.A/	.	.	.
=8-	=8-	=8-	=8-	=8-	=8-	=8-	=8-
1FF	-ri-	2c\	.	.	.	2r	.
.	.	.	.	4G/	.	.	.
!	!	!LO:TX:t=P:problem=kreska pseudotaktowa	!	!	!	!	!
.	.	2c\	-ri-	4F/	.	1F	KY-
!	!	!	!	!LO:TX:t=P:problem=kreska pseudotaktowa	!	!	!
.	.	.	.	4E/	.	.	.
*	*	*	*	*custos:E	*	*	*
!	!	!	!	!LO:TX:t=P:problem=kreska pseudotaktowa	!	!	!
1BB-	-e	1d	-e	1D	.	.	.
!	!	!	!	!	!	!LO:TX:t=P:problem=kreska pseudotaktowa	!
.	.	.	.	.	.	2G/	-ri-
!	!	!	!	!LO:LB:g=original	!	!	!
=9-	=9-	=9-	=9-	=9-	=9-	=9-	=9-
!LO:TX:t=P:problem=kreska pseudotaktowa	!	!	!	!	!	!	!
1AA	.	2.c\	.	2E/	.	2A/	.
.	.	.	.	2F/	.	1c	-e
!	!	!LO:TX:t=P:problem=kreska pseudotaktowa	!	!	!	!	!
.	.	4B-/	.	.	.	.	.
2r	.	4A/	.	2C/	.	.	.
.	.	4G/	.	.	.	.	.
*	*ij	*	*	*	*	*	*
!	!	!	!	!LO:TX:t=P:problem=kreska pseudotaktowa	!	!	!
2FF/	KY-	1F/	.	2c\	.	4B-/	.
!	!	!	!	!	!	!LO:TX:t=P:problem=kreska pseudotaktowa	!
.	.	.	.	.	.	4A/	.
=10-	=10-	=10-	=10-	=10-	=10-	=10-	=10-
*lig	*	*	*	*	*	*	*
1C	-ri-	.	.	2.c\	.	1G	.
*	*	*custos:F	*	*	*	*	*
!	!	!LO:TX:t=P:problem=kreska pseudotaktowa	!	!	!	!	!
.	.	2E/	.	.	.	.	.
.	.	.	.	4B-\	.	.	.
!	!	!LO:LB:g=original	!	!	!	!	!
!LO:TX:t=P:problem=kreska pseudotaktowa	!	!LO:TX:t=P:problem=kreska pseudotaktowa	!	!	!	!LO:TX:t=P:problem=kreska pseudotaktowa	!
1D	.	1F	.	2A/	.	1F	.
.	.	.	.	4G/	.	.	.
!	!	!	!	!LO:TX:t=P:problem=kreska pseudotaktowa	!	!	!
.	.	.	.	4F/	.	.	.
*Xlig	*	*	*	*	*	*	*
=11-	=11-	=11-	=11-	=11-	=11-	=11-	=11-
2C/	-e	2r	.	4E/	.	1r	.
.	.	.	.	8D/L	.	.	.
.	.	.	.	8C/J	.	.	.
2AA/	.	2C/	KY-	1F	.	.	.
*	*	*lig	*	*	*	*	*
2BB-/	.	1G	-ri-	.	.	2r	.
2C/	.	.	.	2E/	.	1c\	KY-
=12-	=12-	=12-	=12-	=12-	=12-	=12-	=12-
!LO:TX:t=P:problem=kreska pseudotaktowa	!	!	!	!	!	!	!
*	*	*	*	*lig	*	*	*
1FF	.	1A	.	1F	.	.	.
.	.	.	.	.	.	2A/	-ri-
!	!	!	!	!	!	!LO:TX:t=P:problem=kreska pseudotaktowa	!
*	*	*Xlig	*	*	*	*	*
!	!	!	!	!LO:TX:t=P:problem=kreska pseudotaktowa	!	!	!
1r	.	2G/	-e	1G	.	2B-/	.
!	!	!LO:TX:t=P:problem=kreska pseudotaktowa	!	!	!	!	!
.	.	2E/	.	.	.	2c\	.
*	*	*	*	*Xlig	*	*	*
=13-	=13-	=13-	=13-	=13-	=13-	=13-	=13-
2r	.	2F/	.	2r	.	1d	-e
2GG/	KY-	2G/	.	2G/	-KŸ-	.	.
!	!	!	!	!	!	!LO:TX:t=P:problem=kreska pseudotaktowa	!
1AA	.	2C/	.	2E/	.	1c	.
.	.	2.c\	.	1F/	-ri-	.	.
=14-	=14-	=14-	=14-	=14-	=14-	=14-	=14-
*custos:BB	*	*	*	*	*	*	*
!LO:TX:t=P:problem=kreska pseudotaktowa	!	!	!	!	!	!	!
1FF	.	.	.	.	.	1.f	.
.	.	4B-\	.	.	.	.	.
!	!	!	!	!LO:TX:t=P:problem=kreska pseudotaktowa	!	!	!
.	.	4A/	.	2C/	.	.	.
!	!	!LO:TX:t=P:problem=kreska pseudotaktowa	!	!	!	!	!
.	.	4G/	.	.	.	.	.
!LO:LB:g=original	!	!	!	!	!	!	!
!	!	!LO:TX:t=P:problem=kreska pseudotaktowa	!	!	!	!	!
1.BB-	-ri-	0F	.	2.D/	-e	.	.
.	.	.	.	.	.	2e\	.
.	.	.	.	4C/	.	.	.
=15-	=15-	=15-	=15-	=15-	=15-	=15-	=15-
.	.	.	.	4D/	.	2d\	.
*	*	*	*	*custos:F	*	*	*
.	.	.	.	4E/	.	.	.
!	!	!	!	!LO:LB:g=original	!	!	!
!LO:TX:t=P:problem=kreska pseudotaktowa	!	!	!	!	!	!LO:TX:t=P:problem=kreska pseudotaktowa	!
2AA/	.	.	.	1F	.	2c\	.
1GG	.	0r	.	.	.	1B-	.
!	!	!	!	!LO:TX:t=P:problem=kreska pseudotaktowa	!	!	!
.	.	.	.	2E/	.	.	.
=16-	=16-	=16-	=16-	=16-	=16-	=16-	=16-
*	*	*	*	*	*	*custos:F	*
2FF/	.	.	.	2F/	.	2A/	.
!	!	!	!	!	!	!LO:LB:g=original	!
1F	-e	.	.	2D/	.	2F/	.
!	!	!	!	!LO:TX:t=P:problem=kreska pseudotaktowa	!	!LO:TX:t=P:problem=kreska pseudotaktowa	!
.	.	2r	.	1C	.	1G	.
!LO:TX:t=P:problem=kreska pseudotaktowa	!	!	!	!	!	!	!
2E\	.	2c\	KY-	.	.	.	.
=17-	=17-	=17-	=17-	=17-	=17-	=17-	=17-
2F\	.	2A/	  ri-	1r	.	2r	.
!	!	!LO:TX:t=P:problem=kreska pseudotaktowa	!	!	!	!	!
2D\	.	2F/	.	.	.	1F	KY-
!	!	!LO:TX:t=P:problem=kreska pseudotaktowa	!	!	!	!	!
1C	.	1G	-e	2r	.	.	.
.	.	.	.	2c\	KŸ-	2E/	-ri-
=18-	=18-	=18-	=18-	=18-	=18-	=18-	=18-
!LO:TX:t=P:problem=kreska pseudotaktowa	!	!	!	!	!	!	!
1FF	.	2r	.	2A/	.	2F/	.
!	!	!	!	!LO:TX:t=P:problem=kreska pseudotaktowa	!	!LO:TX:t=P:problem=kreska pseudotaktowa	!
.	.	1F	KY-	2F/	-ri-	2D/	-e
*	*	*	*	*	*	*	*Xij
2r	.	.	.	1G	-e	2C/	.
!	!	!LO:TX:t=P:problem=kreska pseudotaktowa	!	!	!	!	!
1r	.	2E/	-ri-	.	.	2c\	.
=19-	=19-	=19-	=19-	=19-	=19-	=19-	=19-
*	*	*	*	*lig	*	*	*
.	.	2F/	.	1F	.	2A/	.
*	*	*custos:C	*	*	*	*	*
!	!	!	!	!	!	!LO:TX:t=P:problem=kreska pseudotaktowa	!
1F	KY-	2D/	-e	.	.	2B-\	.
!	!	!LO:LB:g=original	!	!	!	!	!
!	!	!LO:TX:t=P:problem=kreska pseudotaktowa	!	!	!	!	!
.	.	1C	.	1G	.	2.c\	.
!LO:TX:t=P:problem=kreska pseudotaktowa	!	!	!	!	!	!	!
2E\	-ri-	.	.	.	.	.	.
.	.	.	.	.	.	4B-/	.
*	*	*	*	*Xlig	*	*	*
=20-	=20-	=20-	=20-	=20-	=20-	=20-	=20-
!	!	!	!	!LO:TX:t=P:problem=kreska pseudotaktowa	!	!	!
1F	-e	2r	.	1A	.	4A/	.
*	*Xij	*	*	*	*	*	*
.	.	.	.	.	.	4G/	.
.	.	2.F/	KY-	.	.	1c	.
1D	.	.	.	2r	.	.	.
.	.	4G/	.	.	.	.	.
!	!	!	!	!LO:TX:t=P:problem=kreska pseudotaktowa	!	!LO:TX:t=P:problem=kreska pseudotaktowa	!
.	.	4A/	.	2D/	KŸ-	2B-\	.
!	!	!LO:TX:t=P:problem=kreska pseudotaktowa	!	!	!	!	!
.	.	4F/	.	.	.	.	.
=21-	=21-	=21-	=21-	=21-	=21-	=21-	=21-
!LO:TX:t=P:problem=kreska pseudotaktowa	!	!	!	!	!	!	!
1C	e-	1G	-ri-	4E/	-ri-	1c	.
.	.	.	.	4F/	.	.	.
.	.	.	.	4G/	-e	.	.
*	*	*	*	*	*Xij	*	*
!	!	!	!	!LO:TX:t=P:problem=kreska pseudotaktowa	!	!	!
.	.	.	.	4E/	.	.	.
4FF/	-le-	1A	-e	2.F/	e-	2r	.
*	*	*	*Xij	*	*	*	*
4GG/	-ii-	.	.	.	.	.	.
4AA/	-ſon:	.	.	.	.	4C/	e-
!	!	!	!	!	!	!LO:TX:t=P:problem=kreska pseudotaktowa	!
4BB-/	.	.	.	8E/L	-le-	4D/	-le-
.	.	.	.	8D/J	-ii-	.	.
=22-	=22-	=22-	=22-	=22-	=22-	=22-	=22-
!LO:TX:t=P:problem=kreska pseudotaktowa	!	!	!	!	!	!	!
1C	.	2r	.	4C/	-ſon	4E/	-ij-
*	*	*	*	*	*	*custos:G	*
.	.	.	.	4D/	.	4F/	-ſon
!	!	!	!	!	!	!LO:LB:g=original	!
!	!	!LO:TX:t=P:problem=kreska pseudotaktowa	!	!	!	!LO:TX:t=P:problem=kreska pseudotaktowa	!
.	.	2G/	e-	4E/	.	2G/	.
*	*	*	*	*custos:G	*	*	*
!	!	!	!	!LO:TX:t=P:problem=kreska pseudotaktowa	!	!	!
.	.	.	.	4F/	.	.	.
!	!	!	!	!LO:LB:g=original	!	!	!
2r	.	1c	-le-	2G/	.	2C/	.
*	*ij	*	*	*	*	*	*
*custos:D	*	*	*	*	*	*	*
!LO:TX:t=P:problem=kreska pseudotaktowa	!	!	!	!	!	!	!
2AA/	e-	.	.	2.A/	.	2c\	.
!LO:PB:g=original	!	!	!	!	!	!	!
=23-	=23-	=23-	=23-	=23-	=23-	=23-	=23-
*	*	*lig	*	*	*	*	*
2D/	-le-	1F	-ÿ-	.	.	2A/	.
.	.	.	.	4G/	.	.	.
!	!	!	!	!	!	!LO:TX:t=P:problem=kreska pseudotaktowa	!
2D/	-ii-	.	.	1F	.	2B-\	.
1C	-ſon:	1G	.	.	.	1c	.
.	.	.	.	2E/	.	.	.
*	*Xij	*Xlig	*	*	*	*	*
=24-	=24-	=24-	=24-	=24-	=24-	=24-	=24-
0FFl	.	0Al	-ſon	0F;\l	.	0cl	.
=25||-	=25||-	=25||-	=25||-	=25||-	=25||-	=25||-	=25||-
*M2/1	*	*M2/1	*	*M2/1	*	*M2/1	*
*met(C|)	*	*met(C|)	*	*met(C|)	*	*met(C|)	*
*	*	*lig	*	*lig	*	*lig	*
!	!	!	!	!LO:TX:a:t=g.	!	!	!
0C	Chri-	0E	Chri-	0G	Chri-	0c	Chri-
=26-	=26-	=26-	=26-	=26-	=26-	=26-	=26-
!	!	!	!	!LO:TX:a:t=b	!	!	!
0BB-	.	0F	.	0B-	.	0d	.
*	*	*Xlig	*	*Xlig	*	*Xlig	*
=27-	=27-	=27-	=27-	=27-	=27-	=27-	=27-
!LO:TX:t=P:problem=kreska pseudotaktowa	!	!LO:TX:t=P:problem=kreska pseudotaktowa	!	!	!	!	!
1C	-ſte	1E	-ſte,	2G/	-ſte	1.c	-ſte
.	.	.	.	1A	.	.	.
1FF	e-	2r	.	.	.	.	.
*	*	*	*ij	*	*	*	*
!	!	!	!	!	!	!LO:TX:t=P:problem=kreska pseudotaktowa	!
.	.	1A\	Chri-	4G/	.	2A/	.
!	!	!	!	!LO:TX:t=P:problem=kreska pseudotaktowa	!	!	!
.	.	.	.	4F/	.	.	.
=28-	=28-	=28-	=28-	=28-	=28-	=28-	=28-
2.AA/	-le-	.	.	4E/	.	1c	.
.	.	.	.	4C/	.	.	.
!	!	!LO:TX:t=P:problem=kreska pseudotaktowa	!	!	!	!	!
.	.	2F/	.	1F	.	.	.
4BB-/	-ii-	.	.	.	.	.	.
1GG	-ſon,	1G	.	.	.	1B-	.
!	!	!	!	!LO:TX:t=P:problem=kreska pseudotaktowa	!	!	!
.	.	.	.	2E/	.	.	.
=29-	=29-	=29-	=29-	=29-	=29-	=29-	=29-
*	*	*custos:c	*	*	*	*	*
!LO:TX:t=P:problem=kreska pseudotaktowa	!	!	!	!	!	!	!
0FF	.	2C/	.	1.F	.	2A/	.
!	!	!LO:LB:g=original	!	!	!	!	!
.	.	1c	.	.	.	4F/	.
!	!	!	!	!	!	!LO:TX:t=P:problem=kreska pseudotaktowa	!
.	.	.	.	.	.	4G/	.
.	.	.	.	.	.	4A/	.
.	.	.	.	.	.	4B-/	.
*	*	*	*	*	*	*custos:B	*
!	!	!LO:TX:t=P:problem=kreska pseudotaktowa	!	!	!	!	!
.	.	2c\	-ſte	2C/	.	1c\	.
=30-	=30-	=30-	=30-	=30-	=30-	=30-	=30-
!	!	!	!	!LO:TX:t=P:problem=kreska pseudotaktowa	!	!	!
00r	.	1d	.	1G	.	.	.
!	!	!	!	!	!	!LO:PB:g=original	!
!	!	!	!	!	!	!LO:TX:t=P:problem=kreska pseudotaktowa	!
.	.	.	.	.	.	2B-/	.
*	*	*	*	*custos:c	*	*	*
.	.	2c\	.	2C/	.	2c\	.
*	*	*	*	*	*	*	*ij
!	!	!	!	!LO:PB:g=original	!	!	!
!	!	!LO:TX:t=P:problem=kreska pseudotaktowa	!	!	!	!	!
.	.	2A/	.	1c\	.	1F/	Chri-
=31-	=31-	=31-	=31-	=31-	=31-	=31-	=31-
.	.	1c	.	.	.	.	.
!	!	!	!	!LO:TX:t=P:problem=kreska pseudotaktowa	!	!LO:TX:t=P:problem=kreska pseudotaktowa	!
.	.	.	.	2c\	.	2C/	.
.	.	1B-	.	1d	.	1G	.
=32-	=32-	=32-	=32-	=32-	=32-	=32-	=32-
0r	.	2A/	.	2c/	.	2C/	.
!	!	!LO:TX:t=P:problem=kreska pseudotaktowa, między nutą a kropką	!	!LO:TX:t=P:problem=kreska pseudotaktowa	!	!	!
.	.	2.F/	.	2A/	.	1c	.
.	.	.	.	1c	.	.	.
.	.	4G/	.	.	.	.	.
!	!	!	!	!	!	!LO:TX:t=P:problem=kreska pseudotaktowa	!
.	.	2A/	.	.	.	2c\	-ſte
=33-	=33-	=33-	=33-	=33-	=33-	=33-	=33-
!LO:TX:t=P:problem=kreska pseudotaktowa	!	!LO:TX:t=P:problem=kreska pseudotaktowa	!	!	!	!	!
1r	.	1G	.	1B-	.	1d	.
2r	.	0r	.	2A/	.	2c\	.
*	*ij	*	*	*	*	*	*
!	!	!	!	!LO:TX:t=P:problem=kreska pseudotaktowa	!	!	!
1F\	-Chri-	.	.	2F/	.	2A/	.
=34-	=34-	=34-	=34-	=34-	=34-	=34-	=34-
.	.	.	.	2r	.	1c	.
!LO:TX:t=P:problem=kreska pseudotaktowa	!	!	!	!	!	!	!
2F\	-ſte	.	.	2f\	Chri-	.	.
!	!	!LO:TX:t=P:problem=kreska pseudotaktowa	!	!	!	!LO:TX:t=P:problem=kreska pseudotaktowa	!
1G	.	1r	.	2d\	.	1B-	.
!	!	!	!	!LO:TX:t=P:problem=kreska pseudotaktowa	!	!	!
.	.	.	.	2e\	.	.	.
=35-	=35-	=35-	=35-	=35-	=35-	=35-	=35-
!	!	!	!	!LO:TX:t=P:problem=kreska pseudotaktowa	!	!	!
2F\	.	2r	.	0f	-ſte	2A/	.
*custos:F	*	*	*	*	*	*	*
!LO:TX:t=P:problem=kreska pseudotaktowa	!	!	!	!	!	!	!
2D/	.	1F	-Chri-	.	.	4F/	.
!	!	!	!	!	!	!LO:TX:t=P:problem=kreska pseudotaktowa	!
.	.	.	.	.	.	4G/	.
!LO:LB:g=original	!	!	!	!	!	!	!
1F	.	.	.	.	.	4A/	.
.	.	.	.	.	.	4B-/	.
!	!	!LO:TX:t=P:problem=kreska pseudotaktowa	!	!	!	!	!
.	.	2F/	-ſte	.	.	2.c\	.
=36-	=36-	=36-	=36-	=36-	=36-	=36-	=36-
!LO:TX:t=P:problem=kreska pseudotaktowa	!	!	!	!	!	!	!
1E	.	1G	.	1r	.	.	.
.	.	.	.	.	.	4B-\	.
!	!	!	!	!	!	!LO:TX:t=P:problem=kreska pseudotaktowa	!
.	.	.	.	.	.	2G/	.
*	*	*	*	*	*	*custos:B	*
!	!	!	!	!LO:TX:t=P:problem=kreska pseudotaktowa	!	!	!
2D/	-e-	2F/	.	0r	.	2A/	.
!	!	!	!	!	!	!LO:LB:g=original	!
!	!	!LO:TX:t=P:problem=kreska pseudotaktowa, między nutą a kropką	!	!	!	!	!
2.BB-/	-le-	2.D/	.	.	.	2.B-\	.
=37-	=37-	=37-	=37-	=37-	=37-	=37-	=37-
.	.	.	.	.	.	.	.
4C/	.	4E/	.	.	.	4A/	.
!LO:TX:t=P:problem=kreska pseudotaktowa	!	!	!	!	!	!	!
2D/	.	1F	.	.	.	2F/	.
!	!	!	!	!	!	!LO:TX:t=P:problem=kreska pseudotaktowa	!
1C	-ii-	.	.	2r	.	1G	.
*	*	*custos:F	*	*	*	*	*
!	!	!LO:TX:t=P:problem=kreska pseudotaktowa	!	!	!	!	!
.	.	2E/	.	1c\	Chri-	.	.
!	!	!LO:PB:g=original	!	!	!	!	!
=38-	=38-	=38-	=38-	=38-	=38-	=38-	=38-
!LO:TX:t=P:problem=kreska pseudotaktowa	!	!	!	!	!	!	!
1FF	-ſon,	1F	.	.	.	2r	.
!	!	!	!	!LO:TX:t=P:problem=kreska pseudotaktowa	!	!	!
.	.	.	.	2c\	-ſte	2F/	Chri-
1r	.	2D/	.	1d	.	2F/	-ſte
!	!	!LO:TX:t=P:problem=kreska pseudotaktowa, między nutą a kropką	!	!	!	!	!
.	.	2.F/	.	.	.	2D/	.
=39-	=39-	=39-	=39-	=39-	=39-	=39-	=39-
*	*	*	*	*custos:A	*	*	*
2r	.	.	.	2c\	.	1A	.
.	.	4G/	.	.	.	.	.
!	!	!	!	!LO:LB:g=original	!	!	!
!	!	!	!	!LO:TX:t=P:problem=kreska pseudotaktowa, między nutą a kropką	!	!	!
1F	Chri-	4A/	.	2.A/	.	.	.
.	.	4B-/	.	.	.	.	.
!	!	!LO:TX:t=P:problem=kreska pseudotaktowa	!	!	!	!LO:TX:t=P:problem=kreska pseudotaktowa	!
.	.	1c	.	.	.	1F	.
.	.	.	.	4B-/	.	.	.
!LO:TX:t=P:problem=kreska pseudotaktowa	!	!	!	!	!	!	!
2F\	-ſte	.	.	4c\	.	.	.
.	.	.	.	4A/	.	.	.
=40-	=40-	=40-	=40-	=40-	=40-	=40-	=40-
1G	.	2r	.	1B-	.	1r	.
.	.	2B-\	Chri-	.	.	.	.
!	!	!	!	!LO:TX:t=P:problem=kreska pseudotaktowa	!	!	!
2F\	.	2c\	.	0A	.	2r	.
!	!	!LO:TX:t=P:problem=kreska pseudotaktowa	!	!	!	!	!
2.D\	.	2d\	.	.	.	1f\	Chri-
=41-	=41-	=41-	=41-	=41-	=41-	=41-	=41-
.	.	2A/	.	.	.	.	.
4E\	.	.	.	.	.	.	.
!	!	!	!	!	!	!LO:TX:t=P:problem=kreska pseudotaktowa	!
4F\	.	1d	-ſte	.	.	2f\	-ſte
!LO:TX:t=P:problem=kreska pseudotaktowa	!	!	!	!	!	!	!
4D\	.	.	.	.	.	.	.
1E	e-	.	.	2r	.	1g	.
*	*	*	*	*	*ij	*	*
.	.	2c\	.	2G/	Chri-	.	.
=42-	=42-	=42-	=42-	=42-	=42-	=42-	=42-
!	!	!LO:TX:t=P:problem=kreska pseudotaktowa	!	!	!	!	!
2D/	.	0d	.	2A/	.	2f\	.
!	!	!	!	!LO:TX:t=P:problem=kreska pseudotaktowa, między nutą a kropką	!	!	!
2.G\	-le-	.	.	2.B-\	.	2.d\	.
4F\	.	.	.	4A/	.	4e\	.
*custos:A	*	*	*	*	*	*	*
!LO:TX:t=P:problem=kreska pseudotaktowa	!	!	!	!	!	!	!
2D/	-ii-	.	.	1d\	-ſte	4f\	.
!	!	!	!	!	!	!LO:TX:t=P:problem=kreska pseudotaktowa	!
.	.	.	.	.	.	4d\	.
!LO:LB:g=original	!	!	!	!	!	!	!
=43-	=43-	=43-	=43-	=43-	=43-	=43-	=43-
!LO:TX:t=P:problem=kreska pseudotaktowa	!	!	!	!	!	!	!
1A	-ſon,	1r	.	.	.	1e	.
!	!	!	!	!LO:TX:t=P:problem=kreska pseudotaktowa	!	!	!
.	.	.	.	2c\	.	.	.
0r	.	2r	.	1.B-	.	1.d	.
.	.	1G/	Chri-	.	.	.	.
=44-	=44-	=44-	=44-	=44-	=44-	=44-	=44-
.	.	.	.	.	.	.	.
!	!	!LO:TX:t=P:problem=kreska pseudotaktowa	!	!	!	!LO:TX:t=P:problem=kreska pseudotaktowa	!
.	.	2G/	-ſte	4A/	.	2B-\	.
*	*	*	*Xij	*	*	*	*
.	.	.	.	4G/	.	.	.
*	*	*	*	*	*	*custos:B	*
!	!	!	!	!LO:TX:t=P:problem=kreska pseudotaktowa	!	!	!
2r	.	1A	.	1F	.	1c	.
!LO:TX:t=P:problem=kreska pseudotaktowa	!	!	!	!	!	!	!
2F\	Chri-	.	.	.	.	.	.
!	!	!	!	!	!	!LO:LB:g=original	!
=45-	=45-	=45-	=45-	=45-	=45-	=45-	=45-
2G\	-ſte	2G/	.	2r	.	2B-/	.
2C/	e-	4F/	.	1c	Chri-	2.G/	.
*	*	*custos:G	*	*	*	*	*
!	!	!LO:TX:t=P:problem=kreska pseudotaktowa	!	!	!	!	!
.	.	4E/	.	.	.	.	.
!	!	!LO:LB:g=original	!	!	!	!	!
1E-X	-leii-	1G	.	.	.	.	.
.	.	.	.	.	.	4A/	.
!	!	!	!	!LO:TX:t=P:problem=kreska pseudotaktowa	!	!	!
.	.	.	.	2c\	-ſte	4B-/	.
*	*	*	*	*	*Xij	*	*
!	!	!	!	!	!	!LO:TX:t=P:problem=kreska pseudotaktowa	!
.	.	.	.	.	.	4G/	.
=46-	=46-	=46-	=46-	=46-	=46-	=46-	=46-
!LO:TX:t=P:problem=kreska pseudotaktowa	!	!LO:TX:t=P:problem=kreska pseudotaktowa	!	!	!	!	!
1D	-ſon,	1F	.	1d	.	1A	.
*	*Xij	*	*	*	*	*	*
*	*	*	*	*custos:c	*	*	*
!	!	!	!	!	!	!LO:TX:t=P:problem=kreska pseudotaktowa	!
2r	.	2E/	.	2G/	.	0G	.
!	!	!	!	!LO:LB:g=original	!	!	!
1C/	.	2C/	.	1c\	.	.	.
=47-	=47-	=47-	=47-	=47-	=47-	=47-	=47-
*	*	*lig	*	*	*	*	*
.	.	1G	.	.	.	.	.
!LO:TX:t=P:problem=kreska pseudotaktowa	!	!	!	!LO:TX:t=P:problem=kreska pseudotaktowa	!	!	!
2C/	.	.	.	2c\	.	.	.
1D	.	1F	.	2A/	.	1r	.
.	.	.	.	2B-/	.	.	.
*	*	*Xlig	*	*	*	*	*
=48-	=48-	=48-	=48-	=48-	=48-	=48-	=48-
!	!	!LO:TX:t=P:problem=kreska pseudotaktowa	!	!	!	!	!
2C/	e-	0E	.	2.c\	.	2r	.
!LO:TX:t=P:problem=kreska pseudotaktowa	!	!	!	!	!	!	!
2AA/	-le-	.	.	.	.	1c	Chri-
.	.	.	.	8B-/L	.	.	.
!	!	!	!	!LO:TX:t=P:problem=kreska pseudotaktowa	!	!	!
.	.	.	.	8A/J	.	.	.
1C	-ii-	.	.	2G/	.	.	.
!	!	!	!	!	!	!LO:TX:t=P:problem=kreska pseudotaktowa	!
.	.	.	.	2A/	.	2c\	-ſte
*	*	*	*	*	*	*	*Xij
=49-	=49-	=49-	=49-	=49-	=49-	=49-	=49-
!LO:TX:t=P:problem=kreska pseudotaktowa	!	!	!	!LO:TX:t=P:problem=kreska pseudotaktowa	!	!	!
1BB-	-ſon	2r	.	1B-	.	1d	.
!	!	!LO:TX:t=P:problem=kreska pseudotaktowa	!	!	!	!	!
.	.	2D/	e-	.	.	.	.
2AA/	.	2E/	-le-	2r	.	2c\	.
!	!	!	!	!	!	!LO:TX:t=P:problem=kreska pseudotaktowa	!
2.FF/	.	2.F/	-ii-	2.A/	e-	2A/	.
=50-	=50-	=50-	=50-	=50-	=50-	=50-	=50-
.	.	.	.	.	.	1c	.
4GG/	.	4E/	-ſon:	4G/	-le-	.	.
!	!	!LO:TX:t=P:problem=kreska pseudotaktowa	!	!	!	!	!
2AA/	.	2C/	.	4E/	-ii-	.	.
!	!	!	!	!LO:TX:t=P:problem=kreska pseudotaktowa	!	!	!
.	.	.	.	4F/	-ſon:	.	.
!LO:TX:t=P:problem=kreska pseudotaktowa	!	!	!	!	!	!	!
1GG	.	2D/	.	1G	.	1B-	.
!	!	!LO:TX:t=P:problem=kreska pseudotaktowa	!	!	!	!	!
.	.	2E/	.	.	.	.	.
=51-	=51-	=51-	=51-	=51-	=51-	=51-	=51-
2r	.	2.F/	.	2F/	.	2A/	e-
*	*ij	*	*	*	*	*	*
*custos:BB	*	*	*	*	*	*	*
!LO:TX:t=P:problem=kreska pseudotaktowa	!	!	!	!	!	!LO:TX:t=P:problem=kreska pseudotaktowa	!
2AA/	Chri-	.	.	2c\	.	2c\	-le-
.	.	4E/	.	.	.	.	.
!LO:LB:g=original	!	!	!	!	!	!	!
2BB-/	-ſte	2D/	.	2B-\	.	2d\	-ii-
!	!	!	!	!LO:TX:t=P:problem=kreska pseudotaktowa	!	!	!
2C/	e-	2C/	.	2G/	.	2e\	-ſon
=52-	=52-	=52-	=52-	=52-	=52-	=52-	=52-
*	*	*custos:F	*	*	*	*	*
0FF	-leii-	00cl	.	0A	.	0f	.
=53-	=53-	=53-	=53-	=53-	=53-	=53-	=53-
*	*	*	*	*custos:C	*	*custos:c	*
0C\l	-ſon	.	.	0Gl	.	0el	.
*	*Xij	*	*	*	*	*	*
!	!	!LO:LB:g=original	!	!LO:LB:g=original	!	!LO:LB:g=original	!
=54||-	=54||-	=54||-	=54||-	=54||-	=54||-	=54||-	=54||-
*M2/1	*	*M2/1	*	*	*	*	*
*met(C|)	*	*met(C|)	*	*	*	*	*
*	*	*	*	*lig	*	*	*
1FF	KŸ-	0F	KY-	1C	KY-	0r	.
*	*	*	*	*col	*	*	*
1.BB-	-ri-	.	.	2.D/	-ri-	.	.
*	*	*	*	*Xlig	*	*	*
!	!	!	!	!LO:TX:t=P:problem=kreska pseudotaktowa	!	!	!
.	.	.	.	4C/	-e	.	.
*	*	*	*	*Xcol	*	*	*
=55-	=55-	=55-	=55-	=55-	=55-	=55-	=55-
*	*	*lig	*	*	*	*	*
.	.	1F	-ri-	4D/	.	0r	.
.	.	.	.	4E/	.	.	.
!LO:TX:t=P:problem=kreska pseudotaktowa	!	!	!	!	!	!	!
2AA/	-e	.	.	1F	.	.	.
!	!	!LO:TX:t=P:problem=kreska pseudotaktowa	!	!	!	!	!
1GG	.	1B-	.	.	.	.	.
!	!	!	!	!LO:TX:t=P:problem=kreska pseudotaktowa	!	!	!
.	.	.	.	2E/	.	.	.
*	*	*Xlig	*	*	*	*	*
=56-	=56-	=56-	=56-	=56-	=56-	=56-	=56-
!LO:TX:t=P:problem=kreska pseudotaktowa	!	!	!	!	!	!	!
0FF	.	2A/	-e	2F/	.	0c	Kii-
.	.	2F/	.	2C/	.	.	.
.	.	2.A/	.	1.F	.	.	.
!	!	!LO:TX:t=P:problem=kreska pseudotaktowa	!	!	!	!	!
.	.	4G/	.	.	.	.	.
=57-	=57-	=57-	=57-	=57-	=57-	=57-	=57-
!	!	!	!	!	!	!LO:TX:t=P:problem=kreska pseudotaktowa	!
0r	.	4A/	.	.	.	1c	-ri-
.	.	4B-\	.	.	.	.	.
.	.	1c	.	2E/	.	.	.
!	!	!	!	!LO:TX:t=P:problem=kreska pseudotaktowa	!	!	!
.	.	.	.	1D	.	1f	-e
.	.	2B-\	.	.	.	.	.
=58-	=58-	=58-	=58-	=58-	=58-	=58-	=58-
*	*ij	*	*	*	*	*	*
!	!	!LO:TX:t=P:problem=kreska pseudotaktowa	!	!	!	!LO:TX:t=P:problem=kreska pseudotaktowa	!
0C	KŸ-	1c	.	2r	.	0e	.
*	*	*	*	*	*ij	*	*
.	.	.	.	2C/	KY-	.	.
.	.	2r	.	1.c	.	.	.
*	*	*	*ij	*	*	*	*
.	.	2C/	KY-	.	.	.	.
=59-	=59-	=59-	=59-	=59-	=59-	=59-	=59-
!LO:TX:t=P:problem=kreska pseudotaktowa	!	!	!	!	!	!	!
*	*	*lig	*	*	*	*	*ij
1C	-ri-	1G	 ri-	.	.	2r	.
!	!	!	!	!LO:TX:t=P:problem=kreska pseudotaktowa	!	!	!
.	.	.	.	2G/	-ri-	2c\	Kii-
!	!	!LO:TX:t=P:problem=kreska pseudotaktowa	!	!	!	!	!
1F	-e	1D	.	1A	-e	1d	.
*	*	*Xlig	*	*	*	*	*
=60-	=60-	=60-	=60-	=60-	=60-	=60-	=60-
!	!	!	!	!	!	!LO:TX:t=P:problem=kreska pseudotaktowa	!
1Eny	.	2.G/	-e	2G/	.	1e	.
!	!	!	!	!LO:TX:t=P:problem=kreska pseudotaktowa	!	!	!
.	.	.	.	2C/	.	.	.
.	.	4A/	.	.	.	.	.
2r	.	2B-\	.	2r	.	2d\	-ri-
!LO:TX:t=P:problem=kreska pseudotaktowa	!	!	!	!	!	!	!
2C/	KŸ-	1c\	.	2.G/	KY-	2c\	.
=61-	=61-	=61-	=61-	=61-	=61-	=61-	=61-
2G\	.	.	.	.	.	1d	-e
*	*	*	*	*custos:B	*	*	*
.	.	.	.	4A/	.	.	.
!	!	!	!	!LO:PB:g=original	!	!	!
!	!	!	!	!LO:TX:t=P:problem=kreska pseudotaktowa	!	!	!
2G\	-ri-	2B-\	.	2B-/	-ri-	.	.
*custos:G	*	*	*	*	*	*	*
!LO:TX:t=P:problem=kreska pseudotaktowa	!	!LO:TX:t=P:problem=kreska pseudotaktowa	!	!	!	!LO:TX:t=P:problem=kreska pseudotaktowa	!
1A	-e	1c	.	4A/	.	1c	.
.	.	.	.	4G/	.	.	.
.	.	.	.	1c\	-e	.	.
!LO:PB:g=original	!	!	!	!	!	!	!
=62-	=62-	=62-	=62-	=62-	=62-	=62-	=62-
*	*	*custos:c	*	*	*	*	*
1G	.	1r	.	.	.	1r	.
.	.	.	.	2B-/	.	.	.
*lig	*	*	*	*	*	*	*
!	!	!LO:LB:g=original	!	!LO:TX:t=P:problem=kreska pseudotaktowa	!	!	!
1C	.	0c	KY-	0c	.	1G	Kii-
=63-	=63-	=63-	=63-	=63-	=63-	=63-	=63-
1.F	.	.	.	.	.	2.A/	.
.	.	.	.	.	.	4G/	.
!	!	!LO:TX:t=P:problem=kreska pseudotaktowa	!	!	!	!	!
.	.	1c	-ri-	1r	.	4A/	.
.	.	.	.	.	.	4B-/	.
!	!	!	!	!	!	!LO:TX:t=P:problem=kreska pseudotaktowa	!
*Xlig	*	*	*	*	*	*	*
!LO:TX:t=P:problem=kreska pseudotaktowa	!	!	!	!	!	!	!
2E/	.	.	.	.	.	1c\	.
=64-	=64-	=64-	=64-	=64-	=64-	=64-	=64-
1D	.	1f	-e	1F	KY-	.	.
.	.	.	.	.	.	2B-\	.
*	*	*	*	*	*	*custos:c	*
!	!	!	!	!LO:TX:t=P:problem=kreska pseudotaktowa	!	!LO:TX:t=P:problem=kreska pseudotaktowa	!
2C/	.	2e\	.	1G	.	0c	-ri-
!	!	!LO:TX:t=P:problem=kreska pseudotaktowa	!	!	!	!	!
2C/	.	2E/	.	.	.	.	.
=65-	=65-	=65-	=65-	=65-	=65-	=65-	=65-
1.F	.	2F/	.	2.A/	.	.	.
.	.	2.A/	.	.	.	.	.
.	.	.	.	4G/	.	.	.
!	!	!	!	!	!	!LO:PB:g=original	!
.	.	.	.	4A/	.	1c	-e
.	.	4G/	.	4B-/	.	.	.
2E/	.	1G/	.	1c\	.	.	.
=66-	=66-	=66-	=66-	=66-	=66-	=66-	=66-
1D	.	.	.	.	.	1f	.
!	!	!LO:TX:t=P:problem=kreska pseudotaktowa	!	!LO:TX:t=P:problem=kreska pseudotaktowa	!	!	!
.	.	2F/	.	2B-/	.	.	.
!LO:TX:t=P:problem=kreska pseudotaktowa	!	!	!	!	!	!LO:TX:t=P:problem=kreska pseudotaktowa	!
1C	.	1G	.	1c	.	1e	.
=67-	=67-	=67-	=67-	=67-	=67-	=67-	=67-
00r	.	2A/	.	0F	-ri-	2r	.
!	!	!	!	!	!	!LO:TX:t=P:problem=kreska pseudotaktowa	!
.	.	4F/	.	.	.	2c\	Kii-
!	!	!LO:TX:t=P:problem=kreska pseudotaktowa	!	!	!	!	!
.	.	4G/	.	.	.	.	.
.	.	4A/	.	.	.	0f	.
.	.	4B-\	.	.	.	.	.
.	.	1c\	.	.	.	.	.
=68-	=68-	=68-	=68-	=68-	=68-	=68-	=68-
*	*	*	*	*lig	*	*	*
.	.	.	.	1F	-e	.	.
!	!	!LO:TX:t=P:problem=kreska pseudotaktowa	!	!	!	!	!
.	.	2F/	.	.	.	.	.
.	.	1G	.	1B-	.	1d	-ri-
*	*	*	*	*Xlig	*	*	*
=69-	=69-	=69-	=69-	=69-	=69-	=69-	=69-
!	!	!LO:TX:t=P:problem=kreska pseudotaktowa	!	!LO:TX:t=P:problem=kreska pseudotaktowa	!	!	!
0FF	KŸ-	0C	.	1A	.	2c\	-e
.	.	.	.	.	.	4F/	.
!	!	!	!	!	!	!LO:TX:t=P:problem=kreska pseudotaktowa	!
.	.	.	.	.	.	4G/	.
.	.	.	.	2r	.	4A/	.
.	.	.	.	.	.	4B-/	.
*	*	*	*	*custos:c	*	*	*
.	.	.	.	2F/	KY-	2.c\	.
!	!	!	!	!LO:LB:g=original	!	!	!
=70-	=70-	=70-	=70-	=70-	=70-	=70-	=70-
1FF	-ri-	0r	.	2c\	.	.	.
.	.	.	.	.	.	4B-/	.
!	!	!	!	!LO:TX:t=P:problem=kreska pseudotaktowa	!	!	!
.	.	.	.	2c\	-ri-	1A	.
1BB-	-e	.	.	1d	.	.	.
!	!	!	!	!	!	!LO:TX:t=P:problem=kreska pseudotaktowa	!
.	.	.	.	.	.	2G/	.
=71-	=71-	=71-	=71-	=71-	=71-	=71-	=71-
*	*	*custos:C	*	*	*	*	*
!LO:TX:t=P:problem=kreska pseudotaktowa	!	!LO:TX:t=P:problem=kreska pseudotaktowa	!	!	!	!	!
1AA	.	0C	KY-	2c\	.	1A	.
.	.	.	.	4C/	.	.	.
!	!	!	!	!LO:TX:t=P:problem=kreska pseudotaktowa	!	!	!
.	.	.	.	4D/	.	.	.
2r	.	.	.	4E/	.	2G/	.
.	.	.	.	4C/	.	.	.
2FF/	-KŸ-	.	.	1F/	.	2F/	.
!	!	!LO:PB:g=original	!	!	!	!	!
=72-	=72-	=72-	=72-	=72-	=72-	=72-	=72-
*lig	*	*	*	*	*	*	*
!	!	!	!	!	!	!LO:TX:t=P:problem=kreska pseudotaktowa	!
1C	.	1C	-ri-	.	.	1G	-e
!	!	!	!	!LO:TX:t=P:problem=kreska pseudotaktowa	!	!	!
.	.	.	.	2E/	.	.	.
*	*	*	*	*	*	*custos:F	*
1D	.	1F	-e	1F	.	2r	.
!	!	!	!	!	!	!LO:LB:g=original	!
.	.	.	.	.	.	2F/	Kii-
*Xlig	*	*	*	*	*	*	*
=73-	=73-	=73-	=73-	=73-	=73-	=73-	=73-
!	!	!LO:TX:t=P:problem=kreska pseudotaktowa	!	!	!	!	!
2C/	.	1E	.	2G/	.	1.c	.
!	!	!	!	!LO:TX:t=P:problem=kreska pseudotaktowa	!	!	!
2AA/	.	.	.	2A/	.	.	.
*custos:BB	*	*	*	*	*	*	*
!LO:TX:t=P:problem=kreska pseudotaktowa	!	!	!	!	!	!	!
1C	.	2r	.	2G/	.	.	.
!	!	!	!	!	!	!LO:TX:t=P:problem=kreska pseudotaktowa	!
.	.	2C/	KY-	2.E/	.	2c\	-ri-
!LO:LB:g=original	!	!	!	!	!	!	!
=74-	=74-	=74-	=74-	=74-	=74-	=74-	=74-
*	*	*lig	*	*	*	*	*
1BB-	.	1G	-ri-	.	.	1d	-e
.	.	.	.	8D/L	.	.	.
.	.	.	.	8C/J	.	.	.
!	!	!	!	!LO:TX:t=P:problem=kreska pseudotaktowa	!	!	!
.	.	.	.	2D/	.	.	.
2AA/	.	1A	.	4E/	.	1c	.
.	.	.	.	4C/	.	.	.
2FF/	.	.	.	1F/	.	.	.
*	*	*Xlig	*	*	*	*	*
=75-	=75-	=75-	=75-	=75-	=75-	=75-	=75-
!LO:TX:t=P:problem=kreska pseudotaktowa	!	!LO:TX:t=P:problem=kreska pseudotaktowa	!	!	!	!	!
1C	.	1G	-e	.	.	2r	.
*	*	*	*	*custos:F	*	*	*
!	!	!	!	!LO:TX:t=P:problem=kreska pseudotaktowa	!	!LO:TX:t=P:problem=kreska pseudotaktowa	!
.	.	.	.	2E/	.	2c\	Kii-
!	!	!	!	!LO:LB:g=original	!	!	!
2FF/	-ri-	2r	.	1F	.	2A/	-ri-
2.F\	-e	2F/	KY-	.	.	4F/	.
*	*Xij	*	*	*	*	*	*
.	.	.	.	.	.	4G/	.
=76-	=76-	=76-	=76-	=76-	=76-	=76-	=76-
!	!	!	!	!LO:TX:t=P:problem=kreska pseudotaktowa	!	!	!
.	.	1c	-ri-	1F	-e	4A/	.
4G\	.	.	.	.	.	4B-\	.
!LO:TX:t=P:problem=kreska pseudotaktowa	!	!	!	!	!	!	!
2A\	.	.	.	.	.	1c	-e
!	!	!LO:TX:t=P:problem=kreska pseudotaktowa	!	!	!	!	!
1G	.	1d	.	2r	.	.	.
!	!	!	!	!	!	!LO:TX:t=P:problem=kreska pseudotaktowa	!
.	.	.	.	1G/	KY-	2B-\	.
=77-	=77-	=77-	=77-	=77-	=77-	=77-	=77-
!LO:TX:t=P:problem=kreska pseudotaktowa	!	!	!	!	!	!	!
1C	.	1c	.	.	.	1c	.
!	!	!	!	!LO:TX:t=P:problem=kreska pseudotaktowa	!	!	!
.	.	.	.	2C/	.	.	.
0r	.	2A/	-e	2D/	.	2r	.
!	!	!	!	!	!	!LO:TX:t=P:problem=kreska pseudotaktowa	!
.	.	4F/	.	2.F/	.	2F/	Kii-
!	!	!LO:TX:t=P:problem=kreska pseudotaktowa	!	!	!	!	!
.	.	4G/	.	.	.	.	.
=78-	=78-	=78-	=78-	=78-	=78-	=78-	=78-
.	.	4A/	.	.	.	2c\	.
.	.	4B-/	.	4G/	.	.	.
!	!	!	!	!LO:TX:t=P:problem=kreska pseudotaktowa	!	!	!
.	.	1c	.	2A/	.	2c\	-ri-
2r	.	.	.	1G	.	1d	-e
*	*	*	*	*	*	*	*Xij
!LO:TX:t=P:problem=kreska pseudotaktowa	!	!	!	!	!	!	!
2GG/	.	2B-\	.	.	.	.	.
=79-	=79-	=79-	=79-	=79-	=79-	=79-	=79-
*	*	*	*	*	*	*custos:F	*
!	!	!LO:TX:t=P:problem=kreska pseudotaktowa	!	!	!	!	!
2AA/	.	1c	.	2C/	-ri-	2c\	.
!	!	!	!	!	!	!LO:LB:g=original	!
!	!	!	!	!LO:TX:t=P:problem=kreska pseudotaktowa	!	!LO:TX:t=P:problem=kreska pseudotaktowa	!
2FF/	.	.	.	2F/	.	2F/	.
!LO:TX:t=P:problem=kreska pseudotaktowa	!	!	!	!	!	!	!
1C	.	2r	.	2E/	.	2G/	.
*	*	*custos:d	*	*	*	*	*
!	!	!LO:TX:t=P:problem=kreska pseudotaktowa	!	!	!	!	!
.	.	2G/	Ky-	2C/	-e	2A/	.
*	*	*	*	*	*Xij	*	*
!	!	!LO:LB:g=original	!	!	!	!	!
=80-	=80-	=80-	=80-	=80-	=80-	=80-	=80-
!	!	!	!	!	!	!LO:TX:t=P:problem=kreska pseudotaktowa	!
1.BB-	.	1.d	-ri-	2.D/	.	0B-	.
!	!	!	!	!LO:TX:t=P:problem=kreska pseudotaktowa	!	!	!
.	.	.	.	4E/	.	.	.
.	.	.	.	1.F	e-	.	.
!	!	!LO:TX:t=P:problem=kreska pseudotaktowa	!	!	!	!	!
4AA/	.	2B-\	.	.	.	.	.
4GG/	.	.	.	.	.	.	.
=81-	=81-	=81-	=81-	=81-	=81-	=81-	=81-
2.FF/	e-	2.c\	-e	.	.	1.A	.
*	*	*	*Xij	*	*	*	*
.	.	.	.	4E/	-le-	.	.
*custos:AA	*	*	*	*	*	*	*
!LO:TX:t=P:problem=kreska pseudotaktowa	!	!	!	!LO:TX:t=P:problem=kreska pseudotaktowa	!	!	!
4GG/	.	4B-\	.	4D/	-ii-	.	.
!LO:LB:g=original	!	!	!	!	!	!	!
!	!	!LO:TX:t=P:problem=kreska pseudotaktowa	!	!	!	!	!
2AA/	.	1A	.	2C/	-ſon:	.	.
*	*	*	*	*custos:E	*	*	*
!	!	!	!	!LO:TX:t=P:problem=kreska pseudotaktowa	!	!	!
2BB-/	-leii-	.	.	2D/	.	4G/	.
.	.	.	.	.	.	4F/	.
!	!	!	!	!LO:LB:g=original	!	!	!
=82-	=82-	=82-	=82-	=82-	=82-	=82-	=82-
!LO:TX:t=P:problem=kreska pseudotaktowa	!	!	!	!	!	!	!
0C	-ſon	2G/	.	2.E/	.	2E/	.
!	!	!	!	!	!	!LO:TX:t=P:problem=kreska pseudotaktowa	!
.	.	4C/	.	.	.	2C/	.
!	!	!LO:TX:t=P:problem=kreska pseudotaktowa	!	!	!	!	!
.	.	4D/	.	4F/	.	.	.
.	.	4E/	.	2G/	.	2r	.
.	.	4F/	.	.	.	.	.
!	!	!	!	!LO:TX:t=P:problem=kreska pseudotaktowa	!	!	!
.	.	2G/	.	2E/	.	2G/	-e-
=83-	=83-	=83-	=83-	=83-	=83-	=83-	=83-
2r	.	2C/	.	2F/	.	2.A/	  le-
*	*ij	*	*	*	*ij	*	*
2FF/	e-	1c	e-	1A	e-	.	.
!	!	!	!	!	!	!LO:TX:t=P:problem=kreska pseudotaktowa	!
.	.	.	.	.	.	4B-\	-ii-
2.AA/	-le-	.	.	.	.	2c\	-ſon:
.	.	4B-\	-le-	4G/	.	2d\	.
!LO:TX:t=P:problem=kreska pseudotaktowa	!	!LO:TX:t=P:problem=kreska pseudotaktowa	!	!LO:TX:t=P:problem=kreska pseudotaktowa	!	!	!
4BB-/	.	4A\	-ij-	4F/	.	.	.
=84-	=84-	=84-	=84-	=84-	=84-	=84-	=84-
2C/	.	2G/	-ſon	2E/	.	2c\	.
2D/	.	2F/	.	1F	-le-	2B-\	.
1C	-ii-	1G	.	.	.	1c	.
.	.	.	.	2E/	-ii-	.	.
=85-	=85-	=85-	=85-	=85-	=85-	=85-	=85-
0FFl	-ſon	0Fl	.	0Fl	-ſon:	0cl	.
*	*Xij	*	*	*	*Xij	*	*
==	==	==	==	==	==	==	==
*-	*-	*-	*-	*-	*-	*-	*-
!!!system-decoration: [(s1,s2,s3,s4)]
!!!RDF**kern: l = terminal long
!!!ENC: Mateusz Solarz
!!!END: 2022-01-31
!!!ENC: Marta Lawrence
!!!END: 2022-01-11
